btmups/_inc/system.svg

<?xml version="1.0" encoding="utf-8"?>
<svg viewBox="0 0 200 40" xmlns="http://www.w3.org/2000/svg">
  <g id="layer1" fill="#000000" stroke="none" transform="matrix(0.00719, 0, 0, 0.00719, 9.286092, 9.193336)">
    <path d="M1790 2655 c-19 -22 -8 -150 17 -206 l21 -46 406 -101 c394 -98 497 -130 543 -174 49 -46 48 -52 -36 -518 -43 -239 -77 -436 -76 -438 2 -2 68 39 149 89 l146 92 0 41 c0 23 -9 263 -20 533 -15 381 -23 499 -34 521 -16 31 -90 103 -125 121 -12 7 -219 30 -459 51 -240 21 -456 41 -479 44 -29 4 -45 1 -53 -9z" style="fill: rgb(204, 204, 204);"/>
    <path d="M936 2431 c-4 -6 -206 -739 -276 -1000 l-11 -43 -42 6 c-23 4 -43 9 -45 10 -2 2 49 197 112 433 64 236 116 436 116 445 0 34 -149 84 -281 95 -69 5 -78 4 -87 -13 -30 -57 -345 -958 -353 -1009 -10 -68 -12 -239 -3 -272 4 -14 44 -47 107 -88 l100 -65 89 1 c127 2 130 -1 216 -203 11 -25 31 -53 44 -61 12 -8 76 -29 140 -47 l117 -33 79 23 c79 23 80 23 118 4 33 -16 46 -33 81 -103 23 -46 46 -88 51 -93 15 -15 314 -80 339 -73 13 3 53 33 91 67 81 74 119 98 153 98 23 0 65 -24 145 -83 40 -30 319 -76 352 -58 26 14 99 124 147 221 35 71 42 108 160 765 122 684 123 690 103 707 -59 52 -417 120 -466 90 -7 -5 -63 -235 -128 -533 -64 -288 -117 -525 -119 -527 -5 -6 -85 19 -85 26 0 4 47 244 105 532 58 289 104 534 103 545 -4 24 -81 57 -218 91 -128 32 -320 57 -351 46 -23 -9 -31 -40 -149 -543 l-126 -534 -34 3 c-19 1 -39 7 -44 12 -6 6 35 209 108 537 134 604 133 537 5 578 -138 43 -348 70 -363 46z" style="fill: rgb(204, 204, 204);"/>
  </g>
  <path d="M 45.404 29.3 L 35.144 29.3 L 38.444 10.55 L 47.684 10.55 L 47.684 10.55 C 49.124 10.55 50.167 10.8 50.814 11.3 L 50.814 11.3 L 50.814 11.3 C 51.467 11.8 51.794 12.57 51.794 13.61 L 51.794 13.61 L 51.794 13.61 C 51.794 15.13 51.457 16.38 50.784 17.36 L 50.784 17.36 L 50.784 17.36 C 50.117 18.34 49.304 18.95 48.344 19.19 L 48.344 19.19 L 48.314 19.37 L 48.314 19.37 C 50.114 19.71 51.014 20.9 51.014 22.94 L 51.014 22.94 L 51.014 22.94 C 51.014 24.74 50.524 26.25 49.544 27.47 L 49.544 27.47 L 49.544 27.47 C 48.564 28.69 47.184 29.3 45.404 29.3 L 45.404 29.3 Z M 44.384 21.83 L 44.384 21.83 L 42.134 21.83 L 41.594 24.89 L 43.814 24.89 L 43.814 24.89 C 44.314 24.89 44.694 24.69 44.954 24.29 L 44.954 24.29 L 44.954 24.29 C 45.214 23.89 45.344 23.38 45.344 22.76 L 45.344 22.76 L 45.344 22.76 C 45.344 22.14 45.024 21.83 44.384 21.83 Z M 45.224 14.66 L 45.224 14.66 L 43.424 14.66 L 42.914 17.45 L 44.684 17.45 L 44.684 17.45 C 45.604 17.45 46.064 16.8 46.064 15.5 L 46.064 15.5 L 46.064 15.5 C 46.064 14.94 45.784 14.66 45.224 14.66 Z M 65.894 17.87 L 65.114 22.22 L 59.414 22.22 L 59.024 24.5 L 66.014 24.5 L 65.174 29.3 L 52.484 29.3 L 55.784 10.55 L 68.324 10.55 L 66.764 15.35 L 60.614 15.35 L 60.194 17.87 L 65.894 17.87 Z M 73.814 26.33 L 72.644 29.3 L 66.644 29.3 L 74.534 10.55 L 83.354 10.55 L 84.674 29.3 L 78.644 29.3 L 78.524 26.33 L 73.814 26.33 Z M 78.074 16.31 L 77.774 16.31 L 75.674 21.56 L 78.074 21.56 L 78.074 16.31 Z M 101.504 10.55 L 100.634 15.35 L 96.494 15.35 L 94.064 29.3 L 88.364 29.3 L 90.794 15.35 L 86.684 15.35 L 87.554 10.55 L 101.504 10.55 Z M 108.674 10.43 L 108.674 10.43 L 108.344 12.35 L 108.344 12.35 C 108.324 12.43 107.374 15.08 105.494 20.3 L 105.494 20.3 L 102.644 20.3 L 102.644 13.37 L 102.644 13.37 C 102.644 12.65 102.744 11.73 102.944 10.61 L 102.944 10.61 L 102.944 10.61 C 103.024 10.07 103.424 9.8 104.144 9.8 L 104.144 9.8 L 107.744 9.8 L 107.744 9.8 C 108.364 9.8 108.674 10.01 108.674 10.43 Z M 121.874 17.87 L 121.094 22.22 L 115.394 22.22 L 115.004 24.5 L 121.994 24.5 L 121.154 29.3 L 108.464 29.3 L 111.764 10.55 L 124.304 10.55 L 122.744 15.35 L 116.594 15.35 L 116.174 17.87 L 121.874 17.87 Z M 131.714 20.21 L 129.764 29.3 L 123.824 29.3 L 128.204 10.55 L 135.644 10.55 L 136.184 20.09 L 136.394 20.09 L 140.294 10.55 L 147.734 10.55 L 145.514 29.3 L 139.544 29.3 L 140.804 20.21 L 140.594 20.21 L 136.844 29.3 L 132.494 29.3 L 131.864 20.21 L 131.714 20.21 Z M 157.574 10.55 L 163.274 10.55 L 160.784 24.62 L 162.824 24.62 L 162.824 24.62 C 163.524 24.62 164.024 24.527 164.324 24.34 L 164.324 24.34 L 164.324 24.34 C 164.624 24.147 164.834 23.71 164.954 23.03 L 164.954 23.03 L 167.174 10.55 L 172.874 10.55 L 171.014 21.08 L 171.014 21.08 C 170.714 22.78 170.367 24.15 169.974 25.19 L 169.974 25.19 L 169.974 25.19 C 169.587 26.23 169.044 27.11 168.344 27.83 L 168.344 27.83 L 168.344 27.83 C 167.644 28.55 166.777 29.05 165.744 29.33 L 165.744 29.33 L 165.744 29.33 C 164.717 29.61 163.414 29.75 161.834 29.75 L 161.834 29.75 L 161.834 29.75 C 159.414 29.75 157.717 29.383 156.744 28.65 L 156.744 28.65 L 156.744 28.65 C 155.777 27.923 155.294 26.67 155.294 24.89 L 155.294 24.89 L 155.294 24.89 C 155.294 23.91 155.434 22.64 155.714 21.08 L 155.714 21.08 L 157.574 10.55 Z M 183.104 24.77 L 183.104 24.77 L 179.384 24.77 L 178.604 29.3 L 172.904 29.3 L 176.204 10.55 L 185.204 10.55 L 185.204 10.55 C 188.604 10.55 190.304 12.13 190.304 15.29 L 190.304 15.29 L 190.304 15.29 C 190.304 16.79 190.094 18.143 189.674 19.35 L 189.674 19.35 L 189.674 19.35 C 189.254 20.563 188.791 21.527 188.284 22.24 L 188.284 22.24 L 188.284 22.24 C 187.771 22.947 187.067 23.547 186.174 24.04 L 186.174 24.04 L 186.174 24.04 C 185.287 24.527 184.264 24.77 183.104 24.77 Z M 182.354 15.35 L 181.034 15.35 L 180.224 19.97 L 181.544 19.97 L 181.544 19.97 C 182.224 19.97 182.737 19.897 183.084 19.75 L 183.084 19.75 L 183.084 19.75 C 183.437 19.597 183.664 19.25 183.764 18.71 L 183.764 18.71 L 183.764 18.71 C 184.024 17.23 184.154 16.42 184.154 16.28 L 184.154 16.28 L 184.154 16.28 C 184.154 15.9 184.004 15.65 183.704 15.53 L 183.704 15.53 L 183.704 15.53 C 183.404 15.41 182.954 15.35 182.354 15.35 L 182.354 15.35 Z" style="white-space: pre; fill: rgb(255, 255, 255);"/>
</svg>

<svg viewBox="0 0 200 40" xmlns="http://www.w3.org/2000/svg"><g fill="#ccc" transform="matrix(.00719 0 0 .00719 9.286092 9.193336)"><path d="m1790 2655c-19-22-8-150 17-206l21-46 406-101c394-98 497-130 543-174 49-46 48-52-36-518-43-239-77-436-76-438 2-2 68 39 149 89l146 92v41c0 23-9 263-20 533-15 381-23 499-34 521-16 31-90 103-125 121-12 7-219 30-459 51s-456 41-479 44c-29 4-45 1-53-9z"/><path d="m936 2431c-4-6-206-739-276-1000l-11-43-42 6c-23 4-43 9-45 10-2 2 49 197 112 433 64 236 116 436 116 445 0 34-149 84-281 95-69 5-78 4-87-13-30-57-345-958-353-1009-10-68-12-239-3-272 4-14 44-47 107-88l100-65 89 1c127 2 130-1 216-203 11-25 31-53 44-61 12-8 76-29 140-47l117-33 79 23c79 23 80 23 118 4 33-16 46-33 81-103 23-46 46-88 51-93 15-15 314-80 339-73 13 3 53 33 91 67 81 74 119 98 153 98 23 0 65-24 145-83 40-30 319-76 352-58 26 14 99 124 147 221 35 71 42 108 160 765 122 684 123 690 103 707-59 52-417 120-466 90-7-5-63-235-128-533-64-288-117-525-119-527-5-6-85 19-85 26 0 4 47 244 105 532 58 289 104 534 103 545-4 24-81 57-218 91-128 32-320 57-351 46-23-9-31-40-149-543l-126-534-34 3c-19 1-39 7-44 12-6 6 35 209 108 537 134 604 133 537 5 578-138 43-348 70-363 46z"/></g><path d="m45.404 29.3h-10.26l3.3-18.75h9.24c1.44 0 2.483.25 3.13.75.653.5.98 1.27.98 2.31 0 1.52-.337 2.77-1.01 3.75-.667.98-1.48 1.59-2.44 1.83l-.03.18c1.8.34 2.7 1.53 2.7 3.57 0 1.8-.49 3.31-1.47 4.53-.98 1.22-2.36 1.83-4.14 1.83zm-1.02-7.47h-2.25l-.54 3.06h2.22c.5 0 .88-.2 1.14-.6.26-.4.39-.91.39-1.53 0-.62-.32-.93-.96-.93zm.84-7.17h-1.8l-.51 2.79h1.77c.92 0 1.38-.65 1.38-1.95 0-.56-.28-.84-.84-.84zm20.67 3.21-.78 4.35h-5.7l-.39 2.28h6.99l-.84 4.8h-12.69l3.3-18.75h12.54l-1.56 4.8h-6.15l-.42 2.52zm7.92 8.46-1.17 2.97h-6l7.89-18.75h8.82l1.32 18.75h-6.03l-.12-2.97zm4.26-10.02h-.3l-2.1 5.25h2.4zm23.43-5.76-.87 4.8h-4.14l-2.43 13.95h-5.7l2.43-13.95h-4.11l.87-4.8zm7.17-.12-.33 1.92c-.02.08-.97 2.73-2.85 7.95h-2.85v-6.93c0-.72.1-1.64.3-2.76.08-.54.48-.81 1.2-.81h3.6c.62 0 .93.21.93.63zm13.2 7.44-.78 4.35h-5.7l-.39 2.28h6.99l-.84 4.8h-12.69l3.3-18.75h12.54l-1.56 4.8h-6.15l-.42 2.52zm9.84 2.34-1.95 9.09h-5.94l4.38-18.75h7.44l.54 9.54h.21l3.9-9.54h7.44l-2.22 18.75h-5.97l1.26-9.09h-.21l-3.75 9.09h-4.35l-.63-9.09zm25.86-9.66h5.7l-2.49 14.07h2.04c.7 0 1.2-.093 1.5-.28.3-.193.51-.63.63-1.31l2.22-12.48h5.7l-1.86 10.53c-.3 1.7-.647 3.07-1.04 4.11-.387 1.04-.93 1.92-1.63 2.64-.7.72-1.567 1.22-2.6 1.5-1.027.28-2.33.42-3.91.42-2.42 0-4.117-.367-5.09-1.1-.967-.727-1.45-1.98-1.45-3.76 0-.98.14-2.25.42-3.81zm25.53 14.22h-3.72l-.78 4.53h-5.7l3.3-18.75h9c3.4 0 5.1 1.58 5.1 4.74 0 1.5-.21 2.853-.63 4.06-.42 1.213-.883 2.177-1.39 2.89-.513.707-1.217 1.307-2.11 1.8-.887.487-1.91.73-3.07.73zm-.75-9.42h-1.32l-.81 4.62h1.32c.68 0 1.193-.073 1.54-.22.353-.153.58-.5.68-1.04.26-1.48.39-2.29.39-2.43 0-.38-.15-.63-.45-.75-.3-.12-.75-.18-1.35-.18z" fill="#fff"/></svg>
